X:53
T:Paul's Perch
C:Terence "Cuz" Teahan
B:Terry "Cuz" Teahan "Sliabh Luachra on Parade" 1980
Z:Patrick Cavanagh
M:12/8
L:1/8
R:Slide
K:G
| BAG e2B d2B e2B | ABA F2D d2B AFD | 
GFE e2B d2B e2B | ged B2G Bed ged :| 
| BAG E2G D2G E2G | Bdd ege dBA GED | 
BAG E2G D2G E2G | BdB g2e dBA GED :|| 

